src/assets/img/btn-cheked.svg

<svg version="1.1" xmlns="http://www.w3.org/2000/svg" xmlns:xlink="http://www.w3.org/1999/xlink" width="32" height="32" viewBox="0,0,256,256"><defs><linearGradient x1="16" y1="0" x2="16" y2="32" gradientUnits="userSpaceOnUse" id="color-1"><stop offset="0" stop-color="#00d1db"></stop><stop offset="1" stop-color="#00848c"></stop></linearGradient><clipPath id="clip-1"><rect x="10.6667" y="10.6667" width="10.6667" height="10.6667" id="clip0_60_200" fill="none"></rect></clipPath></defs><g fill="none" fill-rule="nonzero" stroke="none" stroke-width="1" stroke-linecap="butt" stroke-linejoin="miter" stroke-miterlimit="10" stroke-dasharray="" stroke-dashoffset="0" font-family="none" font-weight="none" font-size="none" text-anchor="none" style="mix-blend-mode: normal"><g transform="scale(8,8)"><rect x="0" y="0" width="32" height="32" rx="8" ry="0" fill="url(#color-1)"></rect><g clip-path="url(#clip-1)"><g fill="#ffffff"><path d="M19.6567,11.6207c0.1827,-0.1844 0.4309,-0.2889 0.6904,-0.2908c0.2595,-0.002 0.5092,0.0989 0.6945,0.2806c0.1854,0.1816 0.2913,0.4293 0.2946,0.6888c0.0033,0.2595 -0.0962,0.5097 -0.2768,0.6961l-5.2267,6.534c-0.0898,0.0966 -0.1981,0.1742 -0.3186,0.2281c-0.1204,0.0539 -0.2505,0.0829 -0.3824,0.0854c-0.1319,0.0025 -0.263,-0.0216 -0.3854,-0.0709c-0.1224,-0.0493 -0.2336,-0.1228 -0.3269,-0.216l-3.4654,-3.464c-0.1841,-0.1842 -0.2875,-0.4341 -0.2875,-0.6945c0.0001,-0.2605 0.1036,-0.5103 0.2879,-0.6945c0.1842,-0.1841 0.4341,-0.2875 0.6945,-0.2875c0.2605,0.0001 0.5103,0.1036 0.6945,0.2879l2.7406,2.7413l4.5467,-5.7933c0.0083,-0.0106 0.0172,-0.0206 0.0267,-0.03z"></path></g></g></g></g></svg>

<svg width="32" height="32" viewBox="0 0 32 32" fill="none" xmlns="http://www.w3.org/2000/svg">
<rect width="32" height="32" rx="8" fill="url(#paint0_linear_60_200)"/>
<g clip-path="url(#clip0_60_200)">
<g filter="url(#filter0_d_60_200)">
<path d="M19.6567 11.6207C19.8394 11.4363 20.0876 11.3318 20.3471 11.3299C20.6066 11.3279 20.8563 11.4288 21.0416 11.6105C21.227 11.7921 21.3329 12.0398 21.3362 12.2993C21.3395 12.5588 21.24 12.809 21.0594 12.9954L15.8327 19.5294C15.7429 19.626 15.6346 19.7036 15.5141 19.7575C15.3937 19.8114 15.2636 19.8404 15.1317 19.8429C14.9998 19.8454 14.8687 19.8213 14.7463 19.772C14.6239 19.7227 14.5127 19.6492 14.4194 19.556L10.954 16.092C10.7699 15.9078 10.6665 15.6579 10.6665 15.3975C10.6666 15.137 10.7701 14.8872 10.9544 14.703C11.1386 14.5189 11.3885 14.4155 11.6489 14.4155C11.9094 14.4156 12.1592 14.5191 12.3434 14.7034L15.084 17.4447L19.6307 11.6514C19.639 11.6408 19.6479 11.6308 19.6574 11.6214L19.6567 11.6207Z" fill="white"/>
</g>
</g>
<defs>
<filter id="filter0_d_60_200" x="10.6665" y="11.3298" width="10.6698" height="10.5132" filterUnits="userSpaceOnUse" color-interpolation-filters="sRGB">
<feFlood flood-opacity="0" result="BackgroundImageFix"/>
<feColorMatrix in="SourceAlpha" type="matrix" values="0 0 0 0 0 0 0 0 0 0 0 0 0 0 0 0 0 0 127 0" result="hardAlpha"/>
<feOffset dy="2"/>
<feColorMatrix type="matrix" values="0 0 0 0 0 0 0 0 0 0 0 0 0 0 0 0 0 0 0.1 0"/>
<feBlend mode="normal" in2="BackgroundImageFix" result="effect1_dropShadow_60_200"/>
<feBlend mode="normal" in="SourceGraphic" in2="effect1_dropShadow_60_200" result="shape"/>
</filter>
<linearGradient id="paint0_linear_60_200" x1="16" y1="0" x2="16" y2="32" gradientUnits="userSpaceOnUse">
<stop stop-color="#89F09C"/>
<stop offset="1" stop-color="#3CC755"/>
</linearGradient>
<clipPath id="clip0_60_200">
<rect width="10.6667" height="10.6667" fill="white" transform="translate(10.6667 10.6667)"/>
</clipPath>
</defs>
</svg>
